icons/Paperclip_filled.svg

<svg width="24" height="24" viewBox="0 0 24 24" fill="none" xmlns="http://www.w3.org/2000/svg">
<path fill-rule="evenodd" clip-rule="evenodd" d="M14,4.25c-1.5188,0 -2.75,1.23122 -2.75,2.75v8c0,0.4142 0.3358,0.75 0.75,0.75c0.4142,0 0.75,-0.3358 0.75,-0.75v-7.5c0,-0.69036 0.5596,-1.25 1.25,-1.25c0.6904,0 1.25,0.55964 1.25,1.25v7.5c0,1.7949 -1.4551,3.25 -3.25,3.25c-1.7949,0 -3.25,-1.4551 -3.25,-3.25v-8c0,-2.8995 2.3505,-5.25 5.25,-5.25c2.8995,0 5.25,2.35051 5.25,5.25v8c0,4.0041 -3.2459,7.25 -7.25,7.25c-4.00406,0 -7.25,-3.2459 -7.25,-7.25v-4c0,-0.6904 0.55964,-1.25 1.25,-1.25c0.69036,0 1.25,0.5596 1.25,1.25v4c0,2.6234 2.12665,4.75 4.75,4.75c2.6234,0 4.75,-2.1266 4.75,-4.75v-8c0,-1.51878 -1.2312,-2.75 -2.75,-2.75z" fill="#002B51"/>
</svg>

<svg width="24" height="24" viewBox="0 0 24 24" fill="none" xmlns="http://www.w3.org/2000/svg">
<path fill-rule="evenodd" clip-rule="evenodd" d="M14 4.25C12.4812 4.25 11.25 5.48122 11.25 7V15C11.25 15.4142 11.5858 15.75 12 15.75C12.4142 15.75 12.75 15.4142 12.75 15V7.5C12.75 6.80964 13.3096 6.25 14 6.25C14.6904 6.25 15.25 6.80964 15.25 7.5V15C15.25 16.7949 13.7949 18.25 12 18.25C10.2051 18.25 8.75 16.7949 8.75 15V7C8.75 4.1005 11.1005 1.75 14 1.75C16.8995 1.75 19.25 4.10051 19.25 7V15C19.25 19.0041 16.0041 22.25 12 22.25C7.99594 22.25 4.75 19.0041 4.75 15V11C4.75 10.3096 5.30964 9.75 6 9.75C6.69036 9.75 7.25 10.3096 7.25 11V15C7.25 17.6234 9.37665 19.75 12 19.75C14.6234 19.75 16.75 17.6234 16.75 15V7C16.75 5.48122 15.5188 4.25 14 4.25Z" fill="#002B51"/>
</svg>
